assets/volume-on-hover.svg

<?xml version="1.0" encoding="utf-8"?>
<!-- Generator: Adobe Illustrator 22.0.0, SVG Export Plug-In . SVG Version: 6.00 Build 0)  -->
<svg version="1.1" id="Layer_1" xmlns="http://www.w3.org/2000/svg" xmlns:xlink="http://www.w3.org/1999/xlink" x="0px" y="0px"
	 width="18px" height="18px" viewBox="0 0 18 18" style="enable-background:new 0 0 18 18;" xml:space="preserve">
<style type="text/css">
	.st0{fill:#FFB600;}
	.st1{fill:none;}
</style>
<path class="st0" d="M9,10.5c1.2,0,2.2-1,2.2-2.2l0-4.5c0-1.2-1-2.2-2.2-2.2s-2.2,1-2.2,2.2v4.5C6.8,9.5,7.8,10.5,9,10.5z M13,8.2
	c0,2.2-1.9,3.8-4,3.8s-4-1.6-4-3.8H3.8c0,2.6,2,4.7,4.5,5v2.5h1.5v-2.5c2.5-0.4,4.5-2.5,4.5-5H13z"/>
<path class="st1" d="M0,0h18v18H0V0z"/>
</svg>

<svg xmlns="http://www.w3.org/2000/svg" viewBox="0 0 18 18" width="18" height="18">
	<style>
		tspan { white-space:pre }
		.shp0 { fill: #ea1e65 } 
		.shp1 { fill: none } 
	</style>
	<path id="Layer" class="shp0" d="M9 10.5C10.2 10.5 11.2 9.5 11.2 8.3L11.2 3.8C11.2 2.6 10.2 1.6 9 1.6C7.8 1.6 6.8 2.6 6.8 3.8L6.8 8.3C6.8 9.5 7.8 10.5 9 10.5ZM13 8.2C13 10.4 11.1 12 9 12C6.9 12 5 10.4 5 8.2L3.8 8.2C3.8 10.8 5.8 12.9 8.3 13.2L8.3 15.7L9.8 15.7L9.8 13.2C12.3 12.8 14.3 10.7 14.3 8.2L13 8.2Z" />
	<path id="Layer" class="shp1" d="M0 0L18 0L18 18L0 18L0 0Z" />
</svg>
